X:1
T:From Memories of Childhood I. Kids Games (Детские игры) 
T:M. Mussorgsky
%%score { ( 1 2 ) | ( 3 4 5 6 ) }
L:1/8
Q:1/4=170
M:3/8
K:D
V:1 treble nm="Piano" snm="Pno."
V:2 treble 
V:3 treble 
V:4 treble 
V:5 treble 
V:6 treble 
V:1
!pp! (f'2 f' | e'3 | d'3 | a3 | f2 d |!<(! g2 f) | .e.d.e!<)! | .c.[B^g].[ca] |!p! (f'3 | e'3 | %10
 d'3 | a3 |!<(! g2) (^g | .a2) ([=fb] | .[^fa]2)!<)! ([gc'] |!>(! .[fd']2) z!>)! |!p! z2 .[^Acf] | %17
 z2 .[^Acg] |"_cresc." z2 .[Bdf] | z2 .[^Aef^a] | z2 .[Bdfb] | z2 .[=c^df=c'] | z [Bb][^d^d'] | %23
 ([ee'][ff'][gg']) |!p! z2 .[^GBe] | z2 .[^GB=f] |"_cresc." z2 .[A=ce] | z2 .[^Gde^g] | %28
 z2 .[A=cea] | z2 .[Beb] | z [Ff][^A^a] | ([Bb][cc'][^d^d']) |!f! e2 B | ^dcB | cB^A | Bc^d | %36
 e2 B | ^dcB | ^ABc | ^dcB |!p! (e2 B | cBA | BA^G | ABc) | (e2 B | cBA | ^GAB | ABc) | %48
"_cresc." (^dcB | cde) | (fe^d | efg) | ([Gg]d!<(!([Gg]!<)! | [^G^g])d!<(!([Gg]!<)! | %54
!f! [Aca]2)) A, | (CB,A,) |!f! [EAe]2 (A | cBA) | x3 |!<(! x3!<)! | x3 |!>(! x3!>)! |!pp! f'3 | %63
 e'3 | d'3 | a3 | z z d- | d d2 | .e.d.e | .c.[B^g].[ca] | .f'.f'.a | .e'.e'.a | .d'.d'.f | %73
 .a.a.f | .g.g.[=f^g] | .[fa].[fa].[=fb] | .[eac'].[eac'].[dad'] | %77
!8va(! .[^d=c'^d'].[dc'=d'].[ec'e'] | .[=f=c'=f'].[fc'f'].[^fc'^f'] | .[gd'g'].[gd'g'].[^gd'^g'] | %80
"_cresc." .[ad'a'].[ad'a'].[bd'b'] | .[=c'e'=c''].[c'e'c''].[^c'e'^c''] |!f! [d'f'd'']2!8va)! x | %83
 x3 |!>(! !^!!fermata![Ff]3- | [Ff]2!>)! z |!p! (B/!<(!c/d/e/f/g/!<)! |!>(! f/g/f/e/d/c/)!>)! | %88
!<(! (B/c/d/e/f/g/!<)! |!>(! f/g/f/e/d/c/)!>)! |!<(! (B/c/d/e/f/g/ | e/f/g/!<)!a/^a/b/ | %92
 c'/d'/c'/b/^a/g/) |!>(! f/e/d/c/B/^A/!>)! |!<(! (B/c/d/e/f/g/!<)! |!>(! f/g/f/e/d/c/)!>)! | %96
!<(! (B/c/d/e/f/g/!<)! |!>(! f/g/f/e/d/c/)!>)! |!<(! (B/c/d/e/f/g/ | e/f/g/!<)!a/^a/b/ | %100
 ^a/b/c'/d'/c'/b/) |!>(! [fb]2 z!>)! ||!<(! z ([eg]2!<)! |!>(! [^df]2 [Bb])!>)! | %104
!<(! z ([eg]2!<)! | [^df]2 [Bb]) | z .[A=ce].[cea] | z [=cfa].[fa=c'] |!<(! .[Bfb] fa!<)! | %109
 .[Beg].[A^df].[GBe] | z (ea) | (f=c') .[=cdf] | z (ea) | (f=c') .[=cdf] | %114
"_cresc." (=c'/b/a/g/f/e/ | d/=c/B/A/[I:staff +1]G/F/) |[I:staff -1] (e'/!>(!d'/c'/b/^a/g/ | %117
 f/e/d/c/B/^A/!>)! |!<(! G/F/^E/F/G/^G/ | A/^A/B/!<)!!>(!^B/c/d/)!>)! ||!p!!<(! (B/c/d/e/f/g/!<)! | %121
!>(! f/g/f/e/d/c/)!>)! |!<(! (B/c/d/e/f/g/!<)! |!>(! f/g/f/e/d/c/)!>)! |!<(! (B/c/d/e/f/g/!<)! | %125
 e/f/g/a/^a/b/ | c'/d'/c'/!>(!b/^a/g/ | f/e/d/c/B/^A/)!>)! | (B/!<(!c/d/e/f/g/!<)! | %129
!>(! f/g/f/e/d/c/)!>)! |!<(! (B/c/d/e/f/g/!<)! |!>(! f/g/f/e/d/c/)!>)! |!<(! (B/c/d/e/f/g/ | %133
 e/f/g/!<)!a/^a/b/ | ^a/b/c'/d'/c'/=a/) |!>(! [dfb]2 z!>)! |!<(! z ([eg]2!<)! | %137
!>(! [^df]2 [Bb])!>)! |!<(! z ([eg]2!<)! |!>(! [^df]2 [Bb])!>)! | z .[A=ce].[cea] | %141
 z .[=cfa].[fa=c'] |!<(! .[Bfb] (fa)!<)! | .[Beg].[A^df].[GBe] | z (ea) | (f=c') .[=cdf] | z (ea) | %147
 (f=c') .[=cdf] |"_cresc." (=c'/b/a/g/f/e/ | d/=c/B/A/[I:staff +1]G/F/) | %150
[I:staff -1] e'/d'/c'/b/^a/g/ |!>(! f/e/d/c/B/^A/!>)! |!<(! G/F/^E/F/G/^G/ | A/^A/B/^B/c/d/ | %154
 ^d/e/^e/!<)!f/!>(!g/^g/ | a/^a/b/^b/c'/d'/!>)! |!pp!!8va(! (b/c'/d'/e'/f'/g'/ | %157
 f'/g'/f'/e'/d'/c'/) | (b/c'/d'/e'/f'/g'/ | f'/g'/f'/e'/d'/c'/) | (b/c'/d'/e'/f'/g'/ | %161
"_cresc." a'/b'/c''/d''/e''/f''/ | g''/f''/e''/d''/c''/b'/!8va)! | a'/g'/f'/e'/d'/c'/ | %164
 b/a/g/f/e/d/ | c/B/A/G/F/E/ | D/C/B,/A,/B,/C/ | D/E/F/G/A/B/) | %168
"_poco a poco dim." (4:3:4(.c.d.e.f) | .g.a.b | .c'.d'.e' |!pp! (f'3 | e'3 | d'3 | a3 | f2 d | %176
!<(! g2 f) | .e.d.e!<)! | .c.[B^g].[ca] | (f'3 | e'3 | d'3 | a3 |!<(! g2) (^g | .a2) ([=fb] | %185
 .[^fa]2)!<)! ([gc'] |!>(! .[fd']2) z!>)! ||!p! z2 .[^Acf] | z2 .[^Acg] |"_cresc." z2 .[Bdf] | %190
 z2 .[^Aef^a] | z2 .[Bdfb] | z2 .[=c^df=c'] | z [Bb][^d^d'] | ([ee'][ff'][gg']) |!p! z2 .[^GBe] | %196
 z2 .[^GB=f] |"_cresc." z2 .[A=ce] | z2 .[^Gde^g] | z2 .[A=cea] | z2 .[Beb] | z [Ff][^A^a] | %202
 ([Bb][cc'][^d^d']) |!f! e2 B | ^dcB | cB^A | Bc^d | e2 B | ^dcB | ^ABc | ^dcB |!p! (e2 B | cBA | %213
 BA^G | ABc) | (e2 B | cBA | ^GAB | ABc | ^d"_cresc."cB) | (cde | fe^d) | ([Gg]d!<(! [Gg]!<)! | %223
 [^G^g]d!<(! ([Gg]!<)! |!f! [Aca]2)) A, | (CB,A,) |!f! [EAe]2 (A | cBA) | x3 |!<(! x3!<)! | x3 | %231
!>(! x3!>)! |!pp! f'3 | e'3 | d'3 | a3 | z z d- | d d2 | .e.d.e | .c.[B^g].[ca] | .f'.f'.a | %241
 .e'.e'.a | .d'.d'.f | .a.a.f | .g.g.[=f^g] | .[fa].[fa].[=fb] | .[eac'].[eac'].[dad'] | %247
!8va(! .[^d=c'^d'].[dc'=d'].[ec'e'] | .[=f=c'=f'].[fc'f'].[^fc'^f'] | .[gd'g'].[gd'g'].[^gd'^g'] | %250
"_cresc." .[ad'a'].[ad'a'].[bd'b'] | .[=c'e'=c''].[c'e'c''].[^c'e'^c''] |!f! [d'f'd'']2!8va)! x | %253
 x3 | !^!!fermata![Ff]3- | [Ff]2 z |!p! (B/!<(!c/d/e/f/g/!<)! |!>(! f/g/f/e/d/c/)!>)! | %258
!<(! (B/c/d/e/f/g/!<)! |!>(! f/g/f/e/d/c/)!>)! | z3 | %261
!f!!8va(! [d'd'']!8va)![I:staff +1] [Dd][I:staff -1][dd'] | x3 | !^![=F=f]3- | [Ff]2 z | %265
!mf! _B/(=c/d/_e/=f/g/ | =f/g/f/"_cresc."_e/d/=c/) | _B/(=c/d/_e/=f/g/ | =f/g/f/_e/d/=c/) | %269
!f!!8va(! [d'd'']!8va)![I:staff +1][Dd][I:staff -1][dd'] | x3 |[Q:1/4=150] [Dd][=F=f][^A,^A] | %272
[Q:1/4=155] [Dd][^G,^G][B,B] |!ff![Q:1/4=160] .[A,A].[B,B].[Cc] |[Q:1/4=165] .[Dd].[Ee].[Ff] | %275
[Q:1/4=170] .[Gg]!>(!.[Aa].[Bb] |[Q:1/4=175] .[cc'].[dd'].[ee']!>)! | %277
!p![Q:1/4=180] (d/e/f/!<(!g/a/b/!<)! | a/b/a/g/f/e/) |[Q:1/4=110] !^![da]3- | [da]2 z |] %281
[K:G][M:4/4]"^II. Nurse and I"[Q:1/4=114]"^Moderato assai"!p! e | (d3 c B3 e) | %283
"_simile" (d3 [ce]) (d3 e) | (d3 c B3 e) | (d3 c) (Bcd=f | e3) (d cdea) | (=gcea) (gcd=f | %288
 e3) (d cdea) | (=gcea) (ge"_marcato"gc' | b)(Bca) (e3 c') | (bBca) (e3 =f) | (e2 c=f) (e3 f) | %293
 (e2 c=f) (e2 ce) | (d3 c B3 e) |"_simile" (d3 [ce] [Bd]3 e) | (d3 c B3 e) | (d3 c Bcd=f) | %298
 (e3 d cdec') | (bBca) (e3 =f | e3) (d cdea | =g3) g [cdf]4 |!mf! [d=f]2 [df]2 [de]3 e | %303
 [c_e]3 [ce] [cd]2 d z | c3 [Ac] [GB] z B2 | (A2 G2) (=F2 E) z | [D_E]4 E4 | %307
 D4-[Q:1/4=80] !fermata!D3[Q:1/4=110] c' | (bBca) e2 z2 | !fermata!z8 |] %310
[K:C][M:4/4]"^III. First Punished: Nurse Shuts Me in a Dark Room"[Q:1/4=172]"^Vivo"!p!{cde} f x x2 x4 | %311
 x8 | x8 | x8 | x8 | x8 | z8 | z8 | z8 | z8 | z8 | z8 | z8 | z8 | z8 | z8 | z8 | z8 | z8 | z8 | %330
 z8 | z8 | z8 | z8 | z8 | z8 | z8 | z8 | z8 | z8 | z8 | z8 | z8 | z8 | z8 | z8 | z8 | z8 | z8 | %349
 z8 | z8 | z8 | z8 | z8 | z8 | z8 | z8 | z8 | z8 | z8 | z8 | z8 | z8 | z8 | z8 |] %365
V:2
 z z [fa] | z z [ea] | z z [df] | z z [eg] | x3 | x3 | x3 | x3 | z z [fa] | z z [ea] | z z [df] | %11
 z z [df] | x3 | x3 | x3 | x3 | x3 | x3 | x3 | x3 | x3 | x3 | x3 | b3 | x3 | x3 | x3 | x3 | x3 | %29
 x3 | x3 | f3 | [E^G]3 | [^DF]3 | [EF]3 | F3 | [E^G]3 | [^DF]3 | [^^EF]3 | [^D^F]2 z | [=D^G]3 | %41
 [CA]2 E- | E2 z | E2 z | [=D^G]3 | [CA]2 E- | E2 z | E2 z | [=F^G]2 z | [E=G]2 z | [FA]2 z | %51
 [GB]2 z | x3 | x3 | x3 | x3 | x3 | x3 | x3 | x3 | x3 | x3 | z z [fa] | z z [ea] | z z [df] | %65
 z z [eg] | f3 | g2 f | x3 | x3 | x3 | x3 | x3 | x3 | x3 | x3 | x3 |!8va(! x3 | x3 | x3 | x3 | x3 | %82
 x2!8va)! x | x3 | x3 | x3 | x3 | x3 | x3 | x3 | x3 | x3 | x3 | x3 | x3 | x3 | x3 | x3 | x3 | x3 | %100
 x3 | x3 || x3 | x3 | x3 | x3 | x3 | x3 | x B2 | x3 | x [A=c]2 | [=cd]2 x | x [A=c]2 | [=cd]2 x | %114
 x3 | x3 | x3 | x3 | x3 | x3 || x3 | x3 | x3 | x3 | x3 | x3 | x3 | x3 | x3 | x3 | x3 | x3 | x3 | %133
 x3 | x3 | x3 | x3 | x3 | x3 | x3 | x3 | x3 | x B2 | x3 | x [A=c]2 | [=cd]2 x | x [A=c]2 | %147
 [=cd]2 x | x3 | x3 | x3 | x3 | x3 | x3 | x3 | x3 |!8va(! x3 | x3 | x3 | x3 | x3 | x3 | x3!8va)! | %163
 x3 | x3 | x3 | x3 | x3 | x3 | x3 | x3 | z z [fa] | z z [ea] | z z [df] | z z [eg] | x3 | x3 | x3 | %178
 x3 | z z [fa] | z z [ea] | z z [df] | z z [df] | x3 | x3 | x3 | x3 || x3 | x3 | x3 | x3 | x3 | %192
 x3 | x3 | b3 | x3 | x3 | x3 | x3 | x3 | x3 | x3 | f3 | [E^G]3 | [^DF]3 | [EF]3 | F3 | [E^G]3 | %208
 [^DF]3 | [^^EF]3 | [^D^F]2 z | [=D^G]3 | [CA]2 E- | E2 z | E2 z | [=D^G]3 | [CA]2 E- | E2 z | %218
 E2 z | [=F^G]2 z | [E=G]3 | [FA]3 | x3 | x3 | x3 | x3 | x3 | x3 | x3 | x3 | x3 | x3 | z z [fa] | %233
 z z [ea] | z z [df] | z z [eg] | f3 | g2 f | x3 | x3 | x3 | x3 | x3 | x3 | x3 | x3 | x3 | %247
!8va(! x3 | x3 | x3 | x3 | x3 | x2!8va)! x | x3 | x3 | x3 | x3 | x3 | x3 | x3 | x3 | %261
!8va(! x!8va)! x2 | x3 | x3 | x3 | z ([=F_B]2 | [A=c]2) z | z (([=F_B]2 | [A=c]2)) z | %269
!8va(! x!8va)! x2 | x3 | x3 | x3 | x3 | x3 | x3 | x3 | x3 | x3 | x3 | x3 |][K:G][M:4/4] z | %282
 z (.D.E.F .G.F.G.E) | [FA]DEF [GB]FG[EB] | [FA]DEF GFGE | FDEF G z B=F | EE^F^G [Ac]4 | %287
 [=Ge]3 [Ace] [Gce] z ([=FB]2 | [^GB])E^F[GB] [Ac]4 | [=Ge]3 [Ace] [Gce] z ([ce]2 | %290
 [dg]) z c[Ace] B(EB)[ceg] | [dg] z c[Ace] B(EB)[Ac] | [GB]E (A2 B)(EB)[Ac] | %293
 [^GB]E (A2 [GB])E A2 | (.[Ac].D.E.^F .G.F.G.E) | [FA]DEF GFG[EB] | [FA]DEF GFGE | %297
 [Fc]DE[FA] G z Bd | dE^F[^GB] [Ac]2- [Ac]c | [dg] z c[Ace] BEBd | dE^F[^GB] [Ac]4 | %301
 [Ac_e]4 (.F.A.d.f) | (cA)(BG- G)(Bc)G | (FGAF) (GABG) | ([=FA]EFD) (FEEB,) | %305
 [C=F]B,CA, ([CD]B, [B,C]) z | x4 (D2 C2) | (C2 B,2- B,3) c | [dg] z c[Ace] [EB]2 x2 | x8 |] %310
[K:C][M:4/4] x8 | x8 | x8 | x8 | x8 | x8 | x8 | x8 | x8 | x8 | x8 | x8 | x8 | x8 | x8 | x8 | x8 | %327
 x8 | x8 | x8 | x8 | x8 | x8 | x8 | x8 | x8 | x8 | x8 | x8 | x8 | x8 | x8 | x8 | x8 | x8 | x8 | %346
 x8 | x8 | x8 | x8 | x8 | x8 | x8 | x8 | x8 | x8 | x8 | x8 | x8 | x8 | x8 | x8 | x8 | x8 | x8 |] %365
V:3
 (d3 | c3 | B3 | c3 | =c3) | (.B.d).A | .^G.B.G | .A.E.A, | (d3 | c3 | B3 | =c3) | (B.d)(_B | %13
 (A).d)(^G | (A).A,)(E | .D).D, z | (F F,2) | (E E,2) | (D D,2) | (C C,2) | (B, B,,2) | (A, A,,2) | %22
 (G,G,,) [F,,F,] | (([G,,G,][F,,F,][E,,E,])) | (E E,2) | (D D,2) | (=C =C,2) | (B, B,,2) | %28
 (A, A,,2) | (G, G,,2) | (F,F,,) [E,,E,] | (([^D,,^D,][C,,C,][B,,,B,,])) | %32
!ped! [B,,^G,] B,,,2!ped-up! | F,2 B, | ^A,B,C | ^DCB, |!ped! [B,,^G,] B,,,2!ped-up! | F,2 B, | %38
 CB,^A, | B,C^D |!ped! [E,B,]3!ped-up! | A,2 C | ^G,A,B, | CB,A, |!ped! [E,B,]3!ped-up! | A,2 C | %46
 B,A,^G, | CB,A, | B,2 A,, | [^A,C]2 =A,, | [=A,=C^D]2 A,, | [G,B,E]2 A,, | [E,B,D]2!ped! A,,, | %53
 [E,_B,D]2!ped-up!!ped! E,,, | [E,A,C]2!ped-up! A,, | (C,B,,A,,) | [A,C]2 (A, | CB,A,) | %58
!p!!ped! (eA)[I:staff -1] (E |A,)[I:staff +1][K:bass] (E,A,,) | %60
[I:staff -1] (EA,)[I:staff +1][K:treble] (e |A)[I:staff -1] (e'a)!ped-up! |[I:staff +1] .d.c.d | %63
 .c.^B.c | .B.^A.B | .c.^B.c | (.=c.B.c | .B._B.A) | .^G.B.G | .A.E.A, | .[df].[df].[df] | %71
 .[ce].[ce].[ce] | .[Bd].[Bd].[Bd] | .[=cd].[cd].[cd] | .[Bd].[Bd].[_Bd] | .[Ad].[Ad].[^Gd] | %76
 .[=GA].[GA].[FA] | .[=FA].[FA][EA] | .[_EA].[EA].[DA] | .[B,G].[B,G].[_B,E] | %80
 .[A,DF].[A,DF].[A,DG] | .[A,EG].[A,EG].[EGA] | [DFA] !>![Dd][I:staff -1]!>![dd'] | %83
[I:staff +1][K:bass] !>![D,D][I:staff -1]!>![Dd][I:staff +1]!>![D,,D,] | !^!!fermata![F,,F,]3- | %85
 [F,,F,]2 z | (B, [DFB]2 | [EF^A]2 F,) | (B, [DFB]2 | [EF^A]2 F,) | B,[DFB] z | E[GBe] z | %92
 F[^Ae] z | [F,C^A]2 z | (B, [DFB]2 | [EF^A]2 F,) | (B, [DFB]2 | [EF^A]2 F,) | B,[DFB] z | %99
 E[GBe] z | F[^Ae] z | [FBd]B, z || (E/F/G/^G/A/^A/ | B/=A/=G/F/E/^D/) | (E/F/G/^G/A/^A/ | %105
 B/=A/=G/F/E/^D/) | E/=D/=C/B,/A,/^G,/ |[K:bass] A,/G,/F,/E,/^D,/E,/ | ^D,/B,,/=C,/^C,/=D,/^D,/ | %109
 E,/G,/B,/^D/E/B,/ | (E/D/C/B,/A,/^G,/ | A,/G,/F,/E,/D,/A,/) | (E/D/=C/B,/A,/^G,/ | %113
 A,/G,/F,/E,/D,/A,/) | (D,/E,/F,/G,/A,/B,/ | =C/)D/ z[K:treble] x |!ped! [F,C^A]2 z | z3 | z3 | %119
 z3!ped-up! || (B, [DFB]2 | [EF^A]2 F,) | (B, [DFB]2 | [EF^A]2 F,) | B,[DFB] z | E[GBe] z | %126
 F[^Ae] z | [F,C^A]2 z | (B, [DFB]2 | [EF^A]2 F,) | (B, [DFB]2 | [EF^A]2 F,) | B,[DFB] z | %133
 E[GBe] z | F[^Ae] z | [DFB]B, z | (E/F/G/^G/A/^A/ | B/A/G/F/E/^D/) | (E/F/G/^G/A/^A/ | %139
 B/A/G/F/E/^D/) | (E/D/=C/B,/A,/^G,/ |[K:bass] A,/G,/F,/E,/^D,/)E,/ | ^D,/B,,/=C,/^C,/=D,/^D,/ | %143
 E,/G,/B,/^D/E/B,/ | (E/D/C/B,/A,/^G,/ | A,/G,/F,/E,/D,/A,/) | (E/D/=C/B,/A,/^G,/ | %147
 A,/G,/F,/E,/D,/A,/) | (D,/E,/F,/G,/A,/B,/ | =C/)D/ z[K:treble] x |!ped! [F,C^A]2 z | z3 | z3 | %153
 z3 | z3 | z3!ped-up! | .B .[df].B | .[^Ac^a] .F.[Af] |.B .[df].B |.[^Ac^a] .F.[Af] |.B .[fb].d | %161
.[ce] .A.[ac'] |.c!ped! .[ac'e'] z | z3 | z3 |[K:bass] (.A,,,.A,,).[E,G,] | z3 | z3!ped-up! | z3 | %169
 z3 | z3 |[K:treble]!ped! (d3 | c3 | B3 | c3 | =c3)!ped-up! | (.B.d).A | .^G.B.G | .A.E.A, | %179
!ped! (d3 | c3 | B3 | =c3)!ped-up! | (B.d)(_B | (A).d)(^G | (A).A,)(E |[K:bass] .D).D, z || %187
 (F F,2) | (E E,2) | (D D,2) | (C C,2) | (B, B,,2) | (A, A,,2) | (G,G,,) [F,,F,] | %194
 (([G,,G,][F,,F,][E,,E,])) | (E E,2) | (D D,2) | (=C =C,2) | (B, B,,2) | (A, A,,2) | (G, G,,2) | %201
 (F,F,,) [E,,E,] | (([^D,,^D,][C,,C,][B,,,B,,])) |!ped! [B,,^G,] B,,,2!ped-up! | F,2 B, | ^A,B,C | %206
 ^DCB, |!ped! [B,,^G,] B,,,2!ped-up! | F,2 B, | CB,^A, | B,C^D |!ped! [E,B,]3!ped-up! | A,2 C | %213
 ^G,A,B, | CB,A, |!ped! [E,B,]3!ped-up! | A,2 C | B,A,^G, | CB,A, | B,2 A,, | [^A,C]2 =A,, | %221
 [=A,=C^D]2 A,, | [E,B,D]2 A,,, | [E,_B,D]2 E,,, | [E,A,C]2 A,, | (C,B,,A,,) | [A,C]2 (A, | %227
 CB,A,) |[K:treble]!p!!ped! (eA)[I:staff -1] (E |A,)[I:staff +1][K:bass] (E,A,,) | %230
[I:staff -1] (EA,)[I:staff +1][K:treble] (e |A)[I:staff -1] (e'a)!ped-up! |[I:staff +1] .d.c.d | %233
 .c.^B.c | .B.^A.B | .c.^B.c |!ped! (=cBc | B_BA)!ped-up! | .^G.B.G | .A.E.A, | .[df].[df].[df] | %241
 .[ce].[ce].[ce] | .[Bd].[Bd].[Bd] | .[=cd].[cd].[cd] | .[Bd].[Bd].[_Bd] | .[Ad].[Ad].[^Gd] | %246
 .[=GA].[GA].[FA] | .[=FA].[FA][EA] | .[_EA].[EA].[DA] | .[B,G].[B,G].[_B,E] | %250
 .[A,DF].[A,DF].[A,DG] | .[A,EG].[A,EG].[EGA] | [DFA] !>![Dd][I:staff -1]!>![dd'] | %253
[I:staff +1][K:bass] !>![D,D][I:staff -1]!>![Dd][I:staff +1]!>![D,,D,] | %254
!ped! !^!!fermata![F,,F,]3- | [F,,F,]2!ped-up! z |[K:treble] (B, [DFB]2 | [EF^A]2 F,) | %258
 (B, [DFB]2 | [EF^A]2 F,) | z3 | x3 | [D,D][I:staff -1][Dd][I:staff +1][D,,D,] | %263
!ped! !^![=F,,=F,]3- | [F,,F,]2!ped-up! z | =F,, ([=F,_B,D]2 | [=F,=C_E]2) F, | =F,, ([=F,_B,D]2 | %268
 [=F,=C_E]2) z | x3 |[K:bass] [D,D][I:staff -1][Dd][I:staff +1][D,,D,] | %271
 [D,,D,][=F,,=F,][^A,,,^A,,] | [D,,D,][^G,,,^G,,][B,,,B,,] | .[A,,,A,,].B,,.C, | .D,.E,.F, | %275
 .G,.A,.B, | .C.D.E | z!ped! D,,[DA]- | [DA]2!ped-up! z |[K:treble] !^![d'f']!>(! [DF]2- | %280
 [DF]2!>)! z |][K:G][M:4/4][K:bass] z | D,, z A, z G,, z G, z | D,, z D, z G,, z G, z | %284
 D,, z A, z G,, z G, z | D,, z D, z G,, z G,^G, | ^G,, z E, z A,, z A, z | %287
 [C,,C,]3 [A,,,A,,] ([C,,C,]2 [D,,D,]2 | [E,,E,]) z E, z A,, z A, z | %289
 [C,,C,]3 [A,,A,] [C,,C,] z (C2 | G,2 A,2 E,3 C | G,2 A,2 E,3) (C | E,2 C,2 E,3) (A, | %293
 E,2 C,A,, E,) z (A,=G,) | (.F,.D,.E,.F, .G,.F,.G,.E,) | D, z .E,.D, .G,.F, (G,2 | %296
 D,) z .A,.D, .G,.F,.G,.C | D,D,, A,D, G,,G, D z | E,, z DE, A, z A,,C | (G,2 A,2 E,2- E,) z | %300
 E,, z DE, A, z A,, z | ([D,,D,]A,C_E) D, z D z | [G,,D,]2 G, z [G,,D,]2 G, z | %303
 G,, z D, z G,, z G, z | [G,,D,]2 =F, z [G,,D,]2 E, z | D,,4 G,, z G,G,, | %306
 z (G,,_B,,=B,, C,D,E,G,- | G,).G,,.D,G,- !fermata!G,3 C | (G,2 A,2) z (E, B,2- | %309
 B,) z z2 !fermata!z4 |] %310
[K:C][M:4/4]{CDE} F A,/[I:staff -1]A/[I:staff +1] E/[I:staff -1]e/[I:staff +1]A,/[I:staff -1]A/[I:staff +1] F/[I:staff -1]f/[I:staff +1]A,/[I:staff -1]A/[I:staff +1] ^D/[I:staff -1]^d/[I:staff +1]A,/[I:staff -1]A/ | %311
[I:staff +1] A/[I:staff -1]a/[I:staff +1]A,/[I:staff -1]A/[I:staff +1] B,/[I:staff -1]B/[I:staff +1]A,/[I:staff -1]A/[I:staff +1] C/[I:staff -1]c/[I:staff +1]A,/[I:staff -1]A/[I:staff +1] C/[I:staff -1]c/[I:staff +1]=D/[I:staff -1]=d/ | %312
[I:staff +1] E/[I:staff -1]e/[I:staff +1]G,/[I:staff -1]G/[I:staff +1] F/[I:staff -1]f/[I:staff +1]G,/[I:staff -1]G/[I:staff +1] B,/[I:staff -1]B/[I:staff +1]G,/[I:staff -1]G/[I:staff +1] E/[I:staff -1]e/[I:staff +1]F,/[I:staff -1]F/ | %313
[I:staff +1] E/[I:staff -1]e/[I:staff +1]G,/[I:staff -1]G/[I:staff +1] A,/[I:staff -1]A/[I:staff +1]^F,/[I:staff -1]^F/[I:staff +1] D/[I:staff -1]d/[I:staff +1]F,/[I:staff -1]F/[I:staff +1] C/[I:staff -1]c/[I:staff +1]D/[I:staff -1]d/ | %314
[I:staff +1] E/[I:staff -1]e/[I:staff +1]C,/[I:staff -1]C/[I:staff +1] E,/[I:staff -1]E/[I:staff +1]G,/[I:staff -1]G/[I:staff +1] C/[I:staff -1]c/[I:staff +1]E,/[I:staff -1]E/[I:staff +1] G,/[I:staff -1]G/[I:staff +1]B,/[I:staff -1]B/ | %315
[I:staff +1] E/[I:staff -1]e/[I:staff +1]C,/[I:staff -1]C/[I:staff +1] E,/[I:staff -1]E/[I:staff +1]G,/[I:staff -1]G/[I:staff +1] C/[I:staff -1]c/[I:staff +1]E,/[I:staff -1]E/[I:staff +1] G,/[I:staff -1]G/[I:staff +1]B,/[I:staff -1]B/ | %316
[I:staff +1] z8 | z8 | z8 | z8 | z8 | z8 | z8 | z8 | z8 | z8 | z8 | z8 | z8 | z8 | z8 | z8 | z8 | %333
 z8 | z8 | z8 | z8 | z8 | z8 | z8 | z8 | z8 | z8 | z8 | z8 | z8 | z8 | z8 | z8 | z8 | z8 | z8 | %352
 z8 | z8 | z8 | z8 | z8 | z8 | z8 | z8 | z8 | z8 | z8 | z8 | z8 |] %365
V:4
 x3 | x3 | x3 | x3 | x3 | x3 | x3 | x3 | x3 | x3 | x3 | x3 | x3 | x3 | x3 | x3 | x3 | x3 | x3 | %19
 x3 | x3 | x3 | G,2 x | x3 | x3 | x3 | x3 | x3 | x3 | x3 | F,2 x | x3 | x3 | B,,3- | [B,,F,]2 z | %35
 B,2 z | x3 | B,,3- | [B,,F,]2 z | B,2 z | E, x2 | E,3- | E,2 z | A,2 z | E, x2 | E,3- | E,2 z | %47
 A,2 z | x3 | x3 | x3 | x3 | x3 | x3 | x3 | x3 | x3 | x3 | x3 | x[K:bass] x2 | x2[K:treble] x | %61
 x3 | x3 | x3 | x3 | x3 | x3 | x3 | x3 | x3 | x3 | x3 | x3 | x3 | x3 | x3 | x3 | x3 | x3 | x3 | %80
 x3 | x3 | x3 |[K:bass] x3 | x3 | x3 | x3 | x3 | x3 | x3 | x3 | x3 | x3 | x3 | x3 | x3 | x3 | x3 | %98
 x3 | x3 | x3 | x3 || x3 | x3 | x3 | x3 | x3 |[K:bass] x3 | x3 | x3 | x3 | x3 | x3 | x3 | x3 | %115
 x2[K:treble] x | x3 | x3 | x3 | x3 || x3 | x3 | x3 | x3 | x3 | x3 | x3 | x3 | x3 | x3 | x3 | x3 | %132
 x3 | x3 | x3 | x3 | x3 | x3 | x3 | x3 | x3 |[K:bass] x3 | x3 | x3 | x3 | x3 | x3 | x3 | x3 | %149
 x2[K:treble] x | x3 | x3 | x3 | x3 | x3 | x3 | x3 | x3 | x3 | x3 | x3 | x3 | x3 | x3 | x3 | %165
[K:bass] x3 | x3 | x3 | x3 | x3 | x3 |[K:treble] x3 | x3 | x3 | x3 | x3 | x3 | x3 | x3 | x3 | x3 | %181
 x3 | x3 | x3 | x3 | x3 |[K:bass] x3 || x3 | x3 | x3 | x3 | x3 | x3 | G,2 x | x3 | x3 | x3 | x3 | %198
 x3 | x3 | x3 | F,2 x | x3 | x3 | B,,3- | [B,,F,]2 z | B,2 z | x3 | B,,3- | [B,,F,]2 z | B,2 z | %211
 E, x2 | E,3- | E,2 z | A,2 z | E, x2 | E,3- | E,2 z | A,2 z | x3 | x3 | x3 | x3 | x3 | x3 | x3 | %226
 x3 | x3 |[K:treble] x3 | x[K:bass] x2 | x2[K:treble] x | x3 | x3 | x3 | x3 | x3 | x3 | x3 | x3 | %239
 x3 | x3 | x3 | x3 | x3 | x3 | x3 | x3 | x3 | x3 | x3 | x3 | x3 | x3 |[K:bass] x3 | x3 | x3 | %256
[K:treble] x3 | x3 | x3 | x3 | x3 | x3 | x3 | x3 | x3 | x3 | x3 | x3 | x3 | x3 |[K:bass] x3 | x3 | %272
 x3 | x3 | x3 | x3 | x3 | x3 | x3 |[K:treble] x3 | x3 |][K:G][M:4/4][K:bass] x | x8 | x8 | x8 | %285
 x8 | x8 | z2 C z x4 | x8 | x8 | x8 | x8 | x8 | x8 | x4 .G,, z z2 | D,, z z2 G,, z .G,.G,, | %296
 D,D,, z2 G,, z G, z | D,2 x6 | x8 | x8 | x8 | x8 | x8 | x8 | x8 | G,,,4- G,,,2 G, z | %306
 (_B,3 =B,) x4 | x8 | x8 | x8 |][K:C][M:4/4] x8 | x8 | x8 | x8 | x8 | x8 | x8 | x8 | x8 | x8 | x8 | %321
 x8 | x8 | x8 | x8 | x8 | x8 | x8 | x8 | x8 | x8 | x8 | x8 | x8 | x8 | x8 | x8 | x8 | x8 | x8 | %340
 x8 | x8 | x8 | x8 | x8 | x8 | x8 | x8 | x8 | x8 | x8 | x8 | x8 | x8 | x8 | x8 | x8 | x8 | x8 | %359
 x8 | x8 | x8 | x8 | x8 | x8 |] %365
V:5
 x3 | x3 | x3 | x3 | x3 | x3 | x3 | x3 | x3 | x3 | x3 | x3 | x3 | x3 | x3 | x3 | x3 | x3 | x3 | %19
 x3 | x3 | x3 | x3 | x3 | x3 | x3 | x3 | x3 | x3 | x3 | x3 | x3 | x3 | x3 | x3 | x3 | x3 | x3 | %38
 x3 | x3 | x A,,2- | A,,3- | A,,3 | x3 | x A,,2- | A,,3- | A,,3 | x3 | x3 | x3 | x3 | x3 | x3 | %53
 x3 | x3 | x3 | x3 | x3 | x3 | x[K:bass] x2 | x2[K:treble] x | x3 | x3 | x3 | x3 | x3 | x3 | x3 | %68
 x3 | x3 | x3 | x3 | x3 | x3 | x3 | x3 | x3 | x3 | x3 | x3 | x3 | x3 | x3 |[K:bass] x3 | x3 | x3 | %86
 x3 | x3 | x3 | x3 | x3 | x3 | x3 | x3 | x3 | x3 | x3 | x3 | x3 | x3 | x3 | x3 || x3 | x3 | x3 | %105
 x3 | x3 |[K:bass] x3 | x3 | x3 | x3 | x3 | x3 | x3 | x3 | x2[K:treble] x | x3 | x3 | x3 | x3 || %120
 x3 | x3 | x3 | x3 | x3 | x3 | x3 | x3 | x3 | x3 | x3 | x3 | x3 | x3 | x3 | x3 | x3 | x3 | x3 | %139
 x3 | x3 |[K:bass] x3 | x3 | x3 | x3 | x3 | x3 | x3 | x3 | x2[K:treble] x | x3 | x3 | x3 | x3 | %154
 x3 | x3 | x3 | x3 | x3 | x3 | x3 | x3 | x3 | x3 | x3 |[K:bass] x3 | x3 | x3 | x3 | x3 | x3 | %171
[K:treble] x3 | x3 | x3 | x3 | x3 | x3 | x3 | x3 | x3 | x3 | x3 | x3 | x3 | x3 | x3 |[K:bass] x3 || %187
 x3 | x3 | x3 | x3 | x3 | x3 | x3 | x3 | x3 | x3 | x3 | x3 | x3 | x3 | x3 | x3 | x3 | x3 | x3 | %206
 x3 | x3 | x3 | x3 | x3 | x A,,2- | A,,3- | A,,3 | x3 | x A,,2- | A,,3- | A,,3 | x3 | x3 | x3 | %221
 x3 | x3 | x3 | x3 | x3 | x3 | x3 |[K:treble] x3 | x[K:bass] x2 | x2[K:treble] x | x3 | x3 | x3 | %234
 x3 | x3 | x3 | x3 | x3 | x3 | x3 | x3 | x3 | x3 | x3 | x3 | x3 | x3 | x3 | x3 | x3 | x3 | x3 | %253
[K:bass] x3 | x3 | x3 |[K:treble] x3 | x3 | x3 | x3 | x3 | x3 | x3 | x3 | x3 | x3 | x3 | x3 | x3 | %269
 x3 |[K:bass] x3 | x3 | x3 | x3 | x3 | x3 | x3 | x3 | x3 |[K:treble] x3 | x3 |] %281
[K:G][M:4/4][K:bass] x | x8 | x8 | x8 | x8 | x8 | x8 | x8 | x8 | x8 | x8 | x8 | x8 | x8 | x8 | x8 | %297
 x8 | x8 | x8 | x8 | x8 | x8 | x8 | x8 | x8 | x8 | x8 | x8 | x8 |][K:C][M:4/4] x8 | x8 | x8 | x8 | %314
 x8 | x8 | x8 | x8 | x8 | x8 | x8 | x8 | x8 | x8 | x8 | x8 | x8 | x8 | x8 | x8 | x8 | x8 | x8 | %333
 x8 | x8 | x8 | x8 | x8 | x8 | x8 | x8 | x8 | x8 | x8 | x8 | x8 | x8 | x8 | x8 | x8 | x8 | x8 | %352
 x8 | x8 | x8 | x8 | x8 | x8 | x8 | x8 | x8 | x8 | x8 | x8 | x8 |] %365
V:6
 x3 | x3 | x3 | x3 | x3 | x3 | x3 | x3 | x3 | x3 | x3 | x3 | x3 | x3 | x3 | x3 | x3 | x3 | x3 | %19
 x3 | x3 | x3 | x3 | x3 | x3 | x3 | x3 | x3 | x3 | x3 | x3 | x3 | x3 | x3 | x3 | x3 | x3 | x3 | %38
 x3 | x3 | x3 | x3 | x3 | x3 | x3 | x3 | x3 | x3 | x3 | x3 | x3 | x3 | x3 | x3 | x3 | x3 | x3 | %57
 x3 | x3 | x[K:bass] x2 | x2[K:treble] x | x3 | x3 | x3 | x3 | x3 | x3 | x3 | x3 | x3 | x3 | x3 | %72
 x3 | x3 | x3 | x3 | x3 | x3 | x3 | x3 | x3 | x3 | x3 |[K:bass] x3 | x3 | x3 | x3 | x3 | x3 | x3 | %90
 x3 | x3 | x3 | x3 | x3 | x3 | x3 | x3 | x3 | x3 | x3 | x3 || x3 | x3 | x3 | x3 | x3 |[K:bass] x3 | %108
 x3 | x3 | x3 | x3 | x3 | x3 | x3 | x2[K:treble] x | x3 | x3 | x3 | x3 || x3 | x3 | x3 | x3 | x3 | %125
 x3 | x3 | x3 | x3 | x3 | x3 | x3 | x3 | x3 | x3 | x3 | x3 | x3 | x3 | x3 | x3 |[K:bass] x3 | x3 | %143
 x3 | x3 | x3 | x3 | x3 | x3 | x2[K:treble] x | x3 | x3 | x3 | x3 | x3 | x3 | x3 | x3 | x3 | x3 | %160
 x3 | x3 | x3 | x3 | x3 |[K:bass] x3 | x3 | x3 | x3 | x3 | x3 |[K:treble] x3 | x3 | x3 | x3 | x3 | %176
 x3 | x3 | x3 | x3 | x3 | x3 | x3 | x3 | x3 | x3 |[K:bass] x3 || x3 | x3 | x3 | x3 | x3 | x3 | x3 | %194
 x3 | x3 | x3 | x3 | x3 | x3 | x3 | x3 | x3 | x3 | x3 | x3 | x3 | x3 | x3 | x3 | x3 | x3 | x3 | %213
 x3 | x3 | x3 | x3 | x3 | x3 | x3 | x3 | x3 | x3 | x3 | x3 | x3 | x3 | x3 |[K:treble] x3 | %229
 x[K:bass] x2 | x2[K:treble] x | x3 | x3 | x3 | x3 | x3 | x3 | x3 | x3 | x3 | x3 | x3 | x3 | x3 | %244
 x3 | x3 | x3 | x3 | x3 | x3 | x3 | x3 | x3 |[K:bass] x3 | x3 | x3 |[K:treble] x3 | x3 | x3 | x3 | %260
 x3 | x3 | x3 | x3 | x3 | x3 | x3 | x3 | x3 | x3 |[K:bass] x3 | x3 | x3 | x3 | x3 | x3 | x3 | x3 | %278
 x3 |[K:treble] x3 | x3 |][K:G][M:4/4][K:bass] x | x8 | x8 | x8 | x8 | x8 | x8 | x8 | x8 | x8 | %291
 x8 | x8 | x8 | x8 | x8 | x8 | x8 | x8 | x8 | x8 | x8 | x8 | x8 | x8 | x8 | _E,4 x4 | x8 | x8 | %309
 x8 |][K:C][M:4/4] x8 | x8 | x8 | x8 | x8 | x8 | x8 | x8 | x8 | x8 | x8 | x8 | x8 | x8 | x8 | x8 | %326
 x8 | x8 | x8 | x8 | x8 | x8 | x8 | x8 | x8 | x8 | x8 | x8 | x8 | x8 | x8 | x8 | x8 | x8 | x8 | %345
 x8 | x8 | x8 | x8 | x8 | x8 | x8 | x8 | x8 | x8 | x8 | x8 | x8 | x8 | x8 | x8 | x8 | x8 | x8 | %364
 x8 |] %365

